X: 13371
T: Flee As A Bird
R: hornpipe
M: 4/4
K: Gmajor
B c>^c|:(3dba (3gfe d>^ce>d|B>GD>B, G,>B,D>G|E>cA>F D>cA>F|G>Bd>e d>Bc>^c|
(3dba (3gfe d>^ce>d|B>GD>B, G,B,D>G|E>cA>F D>cA>F|1 G2 B2 G>Bc>^c:|2 G2 B2 G2||
|:(3B^AB|g>ba>g f>ag>f|e>gf>e f>^d B2|g>ba>g f>ag>f|e>gf>e f>^d B2|
(3cde A>c (3Bcd G>B|(3ABc F>A (3GAB D>F|(3GAB (3DEF (3GBA (3GFE|(3DED (3CB,A, G,2:|
|:e>f|g>ag>e f>gf>^d|e>Be>g b>ga>^a|b>c'b>a f>^dB z|b>c'b>a f>^dB z|
g>ag>e f>gf>^d|e>Be>g b>ga>^a|b>^dc'>^d b>^dc'>^d|b>c'b>f e2:|
|:D>C|B,>DG>D B>DE>D|B,>DG>D B>DE>D|(3D^CD F>E D>=CB,>A,|G,>GF>A G2 D>C|
B,>DG>D B>DE>D|B,>DG>D B>DE>D|(3D^CD F>E D>=CB,>A,|G,>GF>A G2:|

